dist/assets/images/confirmRegistration/checkmark-circle-2.svg

<svg width="56" height="56" viewBox="0 0 56 56" fill="none" xmlns="http://www.w3.org/2000/svg">
<g id=" checkmark-circle-2">
<path id="Icon" fill-rule="evenodd" clip-rule="evenodd" d="M48.9929 25.6061H48.9999C50.2856 25.6061 51.3309 26.6467 51.3333 27.9324C51.3519 34.1647 48.9416 40.0331 44.5456 44.4524C40.1519 48.8718 34.2999 51.3148 28.0676 51.3334H27.9999C21.7909 51.3334 15.9506 48.9254 11.5476 44.5457C7.12828 40.1521 4.68528 34.3001 4.66661 28.0678C4.64794 21.8331 7.05828 15.9671 11.4543 11.5477C15.8479 7.12841 21.6999 4.68541 27.9323 4.66675C29.7873 4.69475 31.6773 4.88141 33.4879 5.31541C34.7386 5.61875 35.5109 6.87875 35.2076 8.13175C34.9066 9.38242 33.6396 10.1524 32.3936 9.85375C30.9446 9.50375 29.4069 9.35675 27.9463 9.33342C22.9599 9.34741 18.2769 11.3027 14.7629 14.8377C11.2466 18.3727 9.31928 23.0674 9.33328 28.0537C9.34728 33.0401 11.3026 37.7208 14.8376 41.2371C18.3609 44.7394 23.0323 46.6668 27.9999 46.6668H28.0536C33.0399 46.6528 37.7229 44.6974 41.2369 41.1624C44.7533 37.6251 46.6806 32.9328 46.6666 27.9464C46.6643 26.6584 47.7049 25.6084 48.9929 25.6061ZM19.3502 26.3505C20.2626 25.4381 21.7372 25.4381 22.6496 26.3505L27.8856 31.5865L42.5786 14.7958C43.4279 13.8321 44.9002 13.7295 45.8709 14.5788C46.8392 15.4258 46.9372 16.9005 46.0879 17.8711L29.7546 36.5378C29.3299 37.0231 28.7232 37.3101 28.0769 37.3335H27.9999C27.3816 37.3335 26.7889 37.0885 26.3502 36.6498L19.3502 29.6498C18.4379 28.7375 18.4379 27.2628 19.3502 26.3505Z" fill="#2E1AAD"/>
</g>
</svg>

<svg width="56" height="56" fill="none" xmlns="http://www.w3.org/2000/svg"><path fill-rule="evenodd" clip-rule="evenodd" d="M48.993 25.606H49a2.333 2.333 0 012.333 2.326 23.175 23.175 0 01-6.787 16.52 23.18 23.18 0 01-16.478 6.881H28a23.175 23.175 0 01-16.452-6.787 23.18 23.18 0 01-6.881-16.478 23.17 23.17 0 016.787-16.52 23.18 23.18 0 0116.478-6.881c1.855.028 3.745.214 5.556.648a2.335 2.335 0 01-1.094 4.539c-1.45-.35-2.987-.497-4.448-.52a18.542 18.542 0 00-13.183 5.504 18.543 18.543 0 00-5.43 13.216 18.546 18.546 0 005.505 13.183A18.548 18.548 0 0028 46.667h.054a18.542 18.542 0 0013.183-5.505 18.547 18.547 0 005.43-13.216 2.334 2.334 0 012.326-2.34zm-29.643.744a2.33 2.33 0 013.3 0l5.236 5.236 14.693-16.79a2.333 2.333 0 013.51 3.075L29.754 36.538a2.34 2.34 0 01-1.678.796H28a2.331 2.331 0 01-1.65-.684l-7-7a2.33 2.33 0 010-3.3z" fill="#2E1AAD"/></svg>
